brandFactory_export/1.Light/Autobus_1Light.svg

<?xml version="1.0" encoding="UTF-8"?>
<svg width="24px" height="24px" viewBox="0 0 24 24" version="1.1" xmlns="http://www.w3.org/2000/svg" xmlns:xlink="http://www.w3.org/1999/xlink">
    <title>1.Light/Autobus_1Light</title>
    <g id="Symbols" stroke="none" stroke-width="1" fill="none" fill-rule="evenodd">
        <g id="1.Light/Autobus_1Light" fill="#5CB615" fill-rule="nonzero">
            <path d="M22.1512605,17.1647059 C21.8386555,17.4806723 21.4420168,17.6621849 21.0588235,17.6621849 L20.8436975,17.6621849 C20.8605042,17.4907563 20.8840336,17.3226891 20.8840336,17.1378151 C20.8840336,14.8789916 19.5563025,13.5310924 17.3310924,13.5310924 C15.1058824,13.5310924 13.7781513,14.8789916 13.7781513,17.1378151 C13.7781513,17.3226891 13.8016807,17.4907563 13.8184874,17.6621849 L9.2,17.6621849 C9.21680672,17.4907563 9.24033613,17.3226891 9.24033613,17.1378151 C9.24033613,14.8789916 7.91260504,13.5310924 5.68739496,13.5310924 C3.46218487,13.5310924 2.13445378,14.8789916 2.13445378,17.1378151 C2.13445378,17.292437 2.15462185,17.4302521 2.16806723,17.5747899 C1.90588235,17.4941176 1.67394958,17.3630252 1.47563025,17.1647059 C1.16302521,16.8487395 0.98487395,16.4453782 0.98487395,16.0588235 L0.98487395,10.9831933 L15.5697479,10.9831933 C15.6201681,10.9831933 20.887395,10.7815126 22.6420168,14.492437 L22.6420168,16.0588235 C22.6420168,16.4453782 22.4605042,16.8487395 22.1512605,17.1647059 L22.1512605,17.1647059 Z M17.3277311,19.7495798 C15.6470588,19.7495798 14.7563025,18.8487395 14.7563025,17.1378151 C14.7563025,15.4302521 15.6470588,14.5260504 17.3277311,14.5260504 C19.0084034,14.5260504 19.8991597,15.4302521 19.8991597,17.1378151 C19.8991597,18.8453782 19.0117647,19.7495798 17.3277311,19.7495798 Z M5.68403361,19.7495798 C4.00336134,19.7495798 3.11260504,18.8487395 3.11260504,17.1378151 C3.11260504,15.4302521 4.00336134,14.5260504 5.68403361,14.5260504 C7.36470588,14.5260504 8.25546218,15.4302521 8.25546218,17.1378151 C8.25546218,18.8453782 7.36806723,19.7495798 5.68403361,19.7495798 Z M1.47226891,4.52268908 C1.78487395,4.20672269 2.18151261,4.02521008 2.56134454,4.02521008 L6.89411765,4.02521008 L6.89411765,9.98823529 L0.981512605,9.98823529 L0.981512605,5.63193277 C0.981512605,5.24201681 1.16302521,4.83865546 1.47226891,4.52268908 L1.47226891,4.52268908 Z M7.8789916,9.98823529 L13.7478992,9.98823529 L13.7478992,4.02521008 L7.8789916,4.02521008 L7.8789916,9.98823529 Z M16.2655462,4.02521008 C16.5243697,4.02521008 22.6420168,4.12268908 22.6420168,11.887395 L22.6420168,12.6806723 C20.1848739,9.8 15.7411765,9.97815126 15.5462185,9.98823529 L14.7294118,9.98823529 L14.7294118,4.02521008 L16.2655462,4.02521008 L16.2655462,4.02521008 Z M21.3008403,5.19831933 C19.1596639,3.03361345 16.3462185,3.03697479 16.2655462,3.02689076 L2.56470588,3.02689076 C1.92605042,3.02689076 1.27394958,3.31260504 0.779831933,3.81680672 C0.285714286,4.31764706 0,4.97983193 0,5.63193277 L0,16.0588235 C0,16.707563 0.282352941,17.3697479 0.779831933,17.8705882 C1.20336134,18.3008403 1.7512605,18.5529412 2.36638655,18.6268908 C2.84033613,19.9747899 4.00672269,20.7478992 5.68403361,20.7478992 C7.3512605,20.7478992 8.51428571,19.9915966 8.99495798,18.6605042 L14.0201681,18.6605042 C14.5008403,19.9882353 15.6605042,20.7478992 17.3310924,20.7478992 C18.9983193,20.7478992 20.1613445,19.9915966 20.6386555,18.6605042 L21.0588235,18.6605042 C21.7008403,18.6605042 22.3495798,18.3714286 22.8436975,17.8705882 C23.3378151,17.3697479 23.6235294,16.707563 23.6235294,16.0588235 L23.6235294,11.887395 C23.6235294,9.00672269 22.8403361,6.75798319 21.3008403,5.19831933 Z" id="Autobus_1Light"></path>
        </g>
    </g>
</svg>

<svg width="24" height="24" viewBox="0 0 24 24" xmlns="http://www.w3.org/2000/svg"><path d="M22.151 17.165c-.312.316-.709.497-1.092.497h-.215c.017-.171.04-.34.04-.524 0-2.259-1.328-3.607-3.553-3.607-2.225 0-3.553 1.348-3.553 3.607 0 .185.024.353.04.524H9.2c.017-.171.04-.34.04-.524 0-2.259-1.327-3.607-3.553-3.607-2.225 0-3.553 1.348-3.553 3.607 0 .154.02.292.034.437a1.639 1.639 0 01-.692-.41c-.313-.316-.491-.72-.491-1.106v-5.076H15.57c.05 0 5.317-.201 7.072 3.51v1.566c0 .386-.181.79-.49 1.106zm-4.823 2.585c-1.68 0-2.572-.901-2.572-2.612 0-1.708.891-2.612 2.572-2.612 1.68 0 2.571.904 2.571 2.612 0 1.707-.887 2.612-2.571 2.612zm-11.644 0c-1.68 0-2.571-.901-2.571-2.612 0-1.708.89-2.612 2.571-2.612 1.68 0 2.571.904 2.571 2.612 0 1.707-.887 2.612-2.571 2.612zM1.472 4.523c.313-.316.71-.498 1.09-.498h4.332v5.963H.982V5.632c0-.39.181-.793.49-1.11zM7.88 9.988h5.869V4.025H7.879v5.963zm8.387-5.963c.258 0 6.376.098 6.376 7.862v.794c-2.457-2.881-6.9-2.703-7.096-2.693h-.817V4.025h1.537zM21.3 5.198c-2.141-2.164-4.955-2.161-5.035-2.171H2.565c-.639 0-1.291.286-1.785.79C.286 4.317 0 4.98 0 5.632v10.427c0 .649.282 1.31.78 1.812.423.43.971.682 1.586.756.474 1.348 1.64 2.12 3.318 2.12 1.667 0 2.83-.755 3.311-2.086h5.025c.48 1.327 1.64 2.087 3.311 2.087 1.667 0 2.83-.756 3.308-2.087h.42c.642 0 1.29-.29 1.785-.79.494-.501.78-1.163.78-1.812v-4.172c0-2.88-.784-5.129-2.323-6.689z" fill="#5CB615" fill-rule="nonzero"/></svg>
